X: 41169
T: Tripping To The Well
R: polka
M: 2/4
K: Gmajor
|:Gz/B/ z/G/z|Ez/D/ z/D/z|Gz/B/ z/d/z|Bz/A/ A>z|
Gz/B/ z/G/z|Ez/D/ z/D/z|Bz/D/ z/F/z|Az/G/ G>z:|
|:d>B GA-|AB/G/ ED|d>B GA-|AB/A/ c/B/A/G/|
d>B GA|B/c/B/G/ E/G/E/D|dG D/E/F/G/|AG G2:|

